icons/camera-outline.svg

<svg xmlns="http://www.w3.org/2000/svg" width="24" height="24" viewBox="0 0 24 24">
  <path d="M13.1715729,3 C13.9672223,3 14.7302841,3.31607052 15.2928932,3.87867966 L15.2928932,3.87867966 L16.415,5 L20,5 C21.5976809,5 22.9036609,6.24891996 22.9949073,7.82372721 L22.9949073,7.82372721 L23,8 L23,18 C23,19.6568542 21.6568542,21 20,21 L20,21 L4,21 C2.34314575,21 1,19.6568542 1,18 L1,18 L1,8 C1,6.34314575 2.34314575,5 4,5 L4,5 L7.584,5 L8.70710678,3.87867966 C9.22283182,3.36295462 9.90699273,3.05439049 10.6302908,3.00654456 L10.6302908,3.00654456 L10.8284271,3 Z M13.1715729,5 L10.8284271,5 C10.5632106,5 10.3088567,5.10535684 10.1213203,5.29289322 L10.1213203,5.29289322 L8.70710678,6.70710678 C8.5195704,6.89464316 8.26521649,7 8,7 L8,7 L4,7 C3.44771525,7 3,7.44771525 3,8 L3,8 L3,18 C3,18.5522847 3.44771525,19 4,19 L4,19 L20,19 C20.5522847,19 21,18.5522847 21,18 L21,18 L21,8 C21,7.44771525 20.5522847,7 20,7 L20,7 L16,7 C15.7347835,7 15.4804296,6.89464316 15.2928932,6.70710678 L15.2928932,6.70710678 L13.8786797,5.29289322 C13.6911433,5.10535684 13.4367894,5 13.1715729,5 L13.1715729,5 Z M12,9 C14.209139,9 16,10.790861 16,13 C16,15.209139 14.209139,17 12,17 C9.790861,17 8,15.209139 8,13 C8,10.790861 9.790861,9 12,9 Z M12,11 C10.8954305,11 10,11.8954305 10,13 C10,14.1045695 10.8954305,15 12,15 C13.1045695,15 14,14.1045695 14,13 C14,11.8954305 13.1045695,11 12,11 Z M19,8 C19.5522847,8 20,8.44771525 20,9 C20,9.55228475 19.5522847,10 19,10 C18.4477153,10 18,9.55228475 18,9 C18,8.44771525 18.4477153,8 19,8 Z"/>
</svg>

<svg xmlns="http://www.w3.org/2000/svg" viewBox="0 0 24 24">
  <path d="M13.17 3a3 3 0 0 1 2.12.88L16.42 5H20a3 3 0 0 1 3 2.82V18a3 3 0 0 1-3 3H4a3 3 0 0 1-3-3V8a3 3 0 0 1 3-3h3.58l1.13-1.12A3 3 0 0 1 10.63 3l.2-.01zm0 2h-2.34a1 1 0 0 0-.7.3L8.7 6.7A1 1 0 0 1 8 7H4a1 1 0 0 0-1 1v10a1 1 0 0 0 1 1h16a1 1 0 0 0 1-1V8a1 1 0 0 0-1-1h-4a1 1 0 0 1-.7-.3l-1.42-1.4a1 1 0 0 0-.7-.3zM12 9a4 4 0 1 1 0 8 4 4 0 0 1 0-8zm0 2a2 2 0 1 0 0 4 2 2 0 0 0 0-4zm7-3a1 1 0 1 1 0 2 1 1 0 0 1 0-2z"/>
</svg>
